X:2213
L:1/16
M:2/4
K:Ador
 (AB) | (cE)(3EEE cded | cE(EF) .G2(AB) | (cE)(3EEE cded | cABG .A2(AB) | (cE)(3EEE cded | 
 cE(EF) .G2(AB) | (cE)(3EEE cded | cABG A2 z2 :: (ea).a.f (ef).e.d | ^cdef .g2(fg) | 
 (ea).a.f (ef).e.d | ^cAB^G .A2(ce) | (ea).a.f (ef).e.d | ^cdef .g2(fg) | afge fded | 
 cA^GB A2 z2 :|

